img/icon-github-edit.svg

<svg fill="none" height="14" viewBox="0 0 14 14" width="14" xmlns="http://www.w3.org/2000/svg" xmlns:xlink="http://www.w3.org/1999/xlink"><clipPath id="a"><path d="m0 .001465h14v14h-14z"/></clipPath><g clip-path="url(#a)"><path clip-rule="evenodd" d="m11.6254 9.87146v-5.495c-.0262-.6825-.2975-1.28625-.8225-1.8025s-1.11996-.79625-1.80246-.8225h-.875v-1.74999516l-2.625 2.62499516 2.625 2.625v-1.75h.875c.23625.0175.41999.09625.60375.27125.18375.175.2625.3675.27125.60375v5.495c-.33313.19184-.59352.48844-.74067.84364-.14716.3551-.17283.749-.07303 1.1202.0998.3713.31948.6991.62487.9326.3054.2335.67939.3596 1.06379.3586.3845.001.7585-.1251 1.0639-.3586s.525-.5613.6248-.9326c.0998-.3712.0742-.7651-.073-1.1202-.1472-.3552-.4075-.6518-.7407-.84364zm-.875 2.55504c-.5775 0-1.04996-.4813-1.04996-1.05 0-.5688.48126-1.05 1.04996-1.05.5688 0 1.05.4812 1.05 1.05 0 .5687-.4812 1.05-1.05 1.05zm-5.24996-9.80004c0-.97125-.77875-1.749995-1.75-1.749995-.38444-.001016-.75843.125025-1.06383.358525-.30539.23351-.52507.56138-.62487.93263-.0998.37126-.07412.76508.07303 1.12024.14715.35515.40754.65173.74067.8436v5.74c-.33313.19184-.59352.48844-.74067.84364-.14715.3551-.17283.749-.07303 1.1202.0998.3713.31948.6991.62487.9326.3054.2335.67939.3596 1.06383.3586.38443.001.75842-.1251 1.06382-.3586.30539-.2335.52507-.5613.62487-.9326.0998-.3712.07413-.7651-.07303-1.1202-.14715-.3552-.40754-.6518-.74066-.84364v-5.74c.51625-.2975.875-.8575.875-1.505zm-.7 8.75004c0 .5775-.48125 1.05-1.05 1.05s-1.05-.4813-1.05-1.05c0-.5688.48125-1.05 1.05-1.05s1.05.4812 1.05 1.05zm-1.05-7.70004c-.5775 0-1.05-.48125-1.05-1.05s.48125-1.05 1.05-1.05 1.05.48125 1.05 1.05-.48125 1.05-1.05 1.05z" fill="#000" fill-rule="evenodd"/></g></svg>

<svg width="14" height="14" viewBox="0 0 14 14" fill="none" xmlns="http://www.w3.org/2000/svg">
<g clip-path="url(#clip0_1369_2634)">
<path fill-rule="evenodd" clip-rule="evenodd" d="M11.6254 9.87146V4.37646C11.5992 3.69396 11.3279 3.09021 10.8029 2.57396C10.2779 2.05771 9.68294 1.77771 9.00044 1.75146H8.12544V0.00146484L5.50044 2.62646L8.12544 5.25146V3.50146H9.00044C9.23669 3.51896 9.42043 3.59771 9.60419 3.77271C9.78794 3.94771 9.86669 4.14021 9.87544 4.37646V9.87146C9.54231 10.0633 9.28192 10.3599 9.13477 10.7151C8.98761 11.0702 8.96194 11.4641 9.06174 11.8353C9.16154 12.2066 9.38122 12.5344 9.68661 12.7679C9.99201 13.0014 10.366 13.1275 10.7504 13.1265C11.1349 13.1275 11.5089 13.0014 11.8143 12.7679C12.1197 12.5344 12.3393 12.2066 12.4391 11.8353C12.5389 11.4641 12.5133 11.0702 12.3661 10.7151C12.2189 10.3599 11.9586 10.0633 11.6254 9.87146ZM10.7504 12.4265C10.1729 12.4265 9.70044 11.9452 9.70044 11.3765C9.70044 10.8077 10.1817 10.3265 10.7504 10.3265C11.3192 10.3265 11.8004 10.8077 11.8004 11.3765C11.8004 11.9452 11.3192 12.4265 10.7504 12.4265ZM5.50044 2.62646C5.50044 1.65521 4.72169 0.876465 3.75044 0.876465C3.366 0.875449 2.99201 1.00149 2.68661 1.23499C2.38122 1.4685 2.16154 1.79637 2.06174 2.16762C1.96194 2.53888 1.98762 2.9327 2.13477 3.28786C2.28192 3.64301 2.54231 3.93959 2.87544 4.13146V9.87146C2.54231 10.0633 2.28192 10.3599 2.13477 10.7151C1.98762 11.0702 1.96194 11.4641 2.06174 11.8353C2.16154 12.2066 2.38122 12.5344 2.68661 12.7679C2.99201 13.0014 3.366 13.1275 3.75044 13.1265C4.13487 13.1275 4.50886 13.0014 4.81426 12.7679C5.11965 12.5344 5.33933 12.2066 5.43913 11.8353C5.53893 11.4641 5.51326 11.0702 5.3661 10.7151C5.21895 10.3599 4.95856 10.0633 4.62544 9.87146V4.13146C5.14169 3.83396 5.50044 3.27396 5.50044 2.62646ZM4.80044 11.3765C4.80044 11.954 4.31919 12.4265 3.75044 12.4265C3.18169 12.4265 2.70044 11.9452 2.70044 11.3765C2.70044 10.8077 3.18169 10.3265 3.75044 10.3265C4.31919 10.3265 4.80044 10.8077 4.80044 11.3765ZM3.75044 3.67646C3.17294 3.67646 2.70044 3.19521 2.70044 2.62646C2.70044 2.05771 3.18169 1.57646 3.75044 1.57646C4.31919 1.57646 4.80044 2.05771 4.80044 2.62646C4.80044 3.19521 4.31919 3.67646 3.75044 3.67646Z" fill="black"/>
</g>
<defs>
<clipPath id="clip0_1369_2634">
<rect width="14" height="14" fill="white" transform="translate(0 0.00146484)"/>
</clipPath>
</defs>
</svg>
